!!!SOCIAL_FUNCTION:	songs received from animals
!!!PDT:	1918

Specific Region: Dakotas, Minnesota, Montana, Nebraska
!!!REG: Dakotas and Montana
!!!LING_GROUP: Siouan
!!!LANG: Tone
!!!OTL@ENG: Where the Wind Is Blowing
!!!ONM: No. 51
**kern
*Imale
*clefF4
*M3/4
*>[A,B,B]
*>norep[A,B]
*>A
*MM54
4e
12e
12e
12e
12e
12e
12e
=2
[4d#
8.d#]
16e
16.e
32e
8d
=3
16c
16c
16c
16c
2A
=4||
*M2/4
4A
4A
*>B
=5!|:
16d
32d
32d
16d
16d
16e
16e
16d
16c
=6
*M3/4
[4A
8.A]
16c
16.c
32c
8A
=7
16G
16G
16G
16G
2E
=8||
*M3/8
16E
16E
16E
16E
16E
16E
=9||
*M3/4
[4D#
8.D#]
16E
16.E
32E
8D
=10
16C
16C
16C
16C
2AA
=11||
*M2/4
4AA
4AA
==:|!
*-
!!!CNT: Native American -- Sioux
!!!MRD: 1911/07//-1914///
!!!OCL: Frances Densmore
!!!YOR1: Teton Sioux Music, Bulletin 61,
!!!YOR2: Bureau of American Ethnology, Smithsonian Institution
!!!PPR: Government Printing Office
!!!PPP: Washington, D.C.
!!!PDT: 1918///
!!!ENC: Craig Stuart Sapp
!!!END: 2002/03/25/
!!!EEV: 2002/03/31/
!!!AGN: Song of Personal Dreams/Song Received from Animals
!!!MPN@@SIO: Shiya'ka
!!!MPN@ENG: Teal Duck
!!!TXO: Teton Sioux
!!!MLC: Standing Rock Reservation, South Dakota, United States of America
!!!ARL: 45.9/-100.7#
!!!catalog: Catalogue No. 474
!!!PPG: 187
!!!EFL: 51/245
!!!VTS: 1683091527
